X:1
T:James Gibb editions
T:Psalm 115 (Becker) - Schütz
%%score [ ( 1 2 ) ( 3 4 ) ]
L:1/8
Q:1/4=98
M:2/2
K:F
V:1 treble nm="Soprano Alto"
V:2 treble 
V:3 bass nm="Tenor Bass"
V:4 bass 
V:1
"^Cornelius Becker\n(1561-1604)""^Heinrich Schütz\n(1585-1672)""^Psalm 115, SWV 213" A4 c2 A2 | %1
w: ~Nicht uns, nicht|
w: der du dein|
 c2 G2 F2 G2 | E2 !courtesy!=C2 F2 G2 | A2 c2 B4 | A4 :|[M:2/2] F4 G2 B2 | A2 B2 G2 ^F2 | G4 B4 | %8
w: uns, Herr, lie- ber|Gott, dein'm Na- men|gib die Eh-|re,|Laß nicht die|Hei- den trei- ben|Spott: Wo|
w: Wahr- heit Güt und|Gnad an uns so|reich ver- meh-|rest.||||
 G2 c2 A2 F2 | (GA F2) E4 | c4 A2 c2 | d2 c2 B2 c2 | A4 c4 | d2 f2 d2 c2 | B4 G2 A2 | c2 G2 G2 D2 | %16
w: ist Gott, der sie|füh\- * * ret?|Du bist ja,|Herr, der wah- re|Gott, der|im Him- mel re-|gie- ret, schafft|al- les, was dir|
w: ||||||||
 (F4 E4) | D8 |] %18
w: be\- *|liebt.|
w: ||
V:2
 C4 E2 D2 | E2 E2 D2 D2 | ^C2 A,2 =C2 E2 | F2 E2 G4 | ^F4 :|[M:2/2] D4 E2 F2 | F2 D2 _E2 D2 | %7
 D4 G4 | D2 G2 F2 C2 | (E2 D2) ^C4 | F4 F2 F2 | F2 F2 G2 G2 | F4 F4 | F2 D2 F2 A2 | G4 E2 F2 | %15
 G2 _E2 D2 B,2 | (A,2 D4 ^C2 | D8) |] %18
V:3
 F,4 G,2 F,2 | A,2 E,2 A,2 B,2 | A,2 E,2 A,2 C2 | C2 A,2 D4 | D4 :|[M:2/2] A,4 C2 D2 | %6
 C2 B,2 C2 A,2 | G,4 D4 | B,2 G,2 C2 A,2 | (C>B,A,/G,/A,) A,4 | %10
"^4. Es hoff Israel auf den Herrn, \ner ist ihr Hülf und Schilde, \ndaß es darf stetiglich begehrn \nsein Treu und Hülf so milde. \nAll die den Herren fürchten schon\nsolln fest auf ihn vertrauen,\ner ist ihr Hülf, ihr Schild und Kron,\ndenen, die auf ihn bauen, \nsoll vor kein'm Unglück grauen.\n\n5. Sein Segen waltet über uns, \nin Gnad Gott an uns denket, \ndenen, die Gott fest vertraun, \ner seinen Segen schenket,\nall die in reiner Furcht ihn ehrn, \nsegnet er insgemeine, \ner will ihn'n allen Guts beschern, \nden Goßen und den Kleinen, \ner ist der Herr alleine." A,4 C2 A,2 | %11
 B,2 C2 D2 E2 | C4 A,4 | %13
 A,2 B,2"^6. Gott segne euch je mehr und mehr,\neuch und all euren Samen, \nihr seid gesegnet von dem Herrn, \ndie ihr ehrt seinen Namen. \nEr hat gemacht Himmel und Erd, \nder Himmel ist sein Throne, \nden Erdkreis hat er uns verehrt, \ndaß wir drauf sollen wohnen,\nsein Reich will zu uns kommen.\n\n7. Die aus dem Leben sind davon, \ndir keinen Dienst beweisen, \nund die im Grabe liegen schon, \ndie werden dich nicht preisen, \nwir leben in der Gnadenzeit \nund preisen allzusammen\nvon nun an bis in Ewigkeit \ndein'n heilgen, werten Namen \nund sprechen fröhlich Amen." B,2 A,2 | %14
 D4 C2 C2 | _E2 C2 B,2 G,2 | A,8 | A,8 |] %18
V:4
 F,4 C,2 D,2 | A,,2 C,2 D,2 G,,2 | A,,2 A,,2 F,,2 C,2 | F,2 A,2 G,4 | D,4 :|[M:2/2] D,4 C,2 B,,2 | %6
 F,2 G,2 C,2 D,2 | G,,4 G,4 | G,2 E,2 F,2 F,2 | (C,A,, D,2) A,,4 | F,4 F,2 F,2 | B,2 A,2 G,2 C,2 | %12
 F,4 F,4 | D,2 B,,2 B,,2 F,2 | G,4 C,2 F,2 | C,2 C,2 G,2 G,,2 | (D,4 A,,4) | D,8 |] %18

